X: 42824
T: Whycocomagh Bay
R: reel
M: 4/4
K: Dmixolydian
G|FDDD FGAB|cCGF EFGE|FDDD FGAd|1 cCGED2dG:|2 cCGED2Dg||
fdd^c defa|gcge cdeg|fdd^c defa|cAGED2Dg|
fdd^c defa|gcge cdeg|fafd egec|faged2d||

